tde/widget/battery/icons/battery-80.svg

﻿<?xml version="1.0" encoding="utf-8"?>
<!DOCTYPE svg PUBLIC "-//W3C//DTD SVG 1.1//EN" "http://www.w3.org/Graphics/SVG/1.1/DTD/svg11.dtd">
<svg xmlns="http://www.w3.org/2000/svg" xmlns:xlink="http://www.w3.org/1999/xlink" version="1.1" baseProfile="full" width="240" height="240" viewBox="0 0 24.00 24.00" enable-background="new 0 0 24.00 24.00" xml:space="preserve">
	<path fill="#FFFFFF" fill-opacity="1" stroke-width="0.2" stroke-linejoin="round" d="M 15.9994,8.99805L 7.99939,8.99805L 7.99939,5.99805L 15.9994,5.99805M 16.6664,3.99805L 14.9994,3.99805L 14.9994,1.99805L 8.99939,1.99805L 8.99939,3.99805L 7.33238,3.99805C 6.59607,3.99805 5.99939,4.59503 5.99939,5.33105L 5.99939,20.665C 5.99939,21.4011 6.59607,21.998 7.33238,21.998L 16.6664,21.998C 17.4024,21.998 17.9994,21.4011 17.9994,20.665L 17.9994,5.33105C 17.9994,4.59503 17.4024,3.99805 16.6664,3.99805 Z "/>
</svg>

<svg xmlns="http://www.w3.org/2000/svg" baseProfile="full" width="240" height="240" viewBox="0 0 24 24" xml:space="preserve"><path fill="#FFF" d="M16 8.998H8v-3h8m.666-2H15v-2H9v2H7.332C6.596 3.998 6 4.595 6 5.331v15.334c0 .736.597 1.333 1.333 1.333h9.334c.736 0 1.333-.597 1.333-1.333V5.331c0-.736-.597-1.333-1.333-1.333z"/></svg>
